X: 10038
T: Dick Cheney's Trip To The Unspecified Location
R: reel
M: 4/4
K: Dminor
AD (3DDD FDCD|EDCD FD D2|AD D2 FDCD|EFGA GF D2:|
A^ccd e^fed|^cde^f g2fe|dB (3BAB AF (3FEF|GFEF D2FG|
A^ccd e^fed|^cde^f g2fg|a^f (3fff ge (3eee|d^fe^c d=BAG||

